assets/img/business-icon.svg

<!-- Generator: Adobe Illustrator 24.0.0, SVG Export Plug-In  -->
<svg version="1.1" xmlns="http://www.w3.org/2000/svg" xmlns:xlink="http://www.w3.org/1999/xlink" x="0px" y="0px" width="56.16px"
	 height="45.71px" viewBox="0 0 56.16 45.71" style="enable-background:new 0 0 56.16 45.71;" xml:space="preserve">
<style type="text/css">
	.st0{fill:#3556FB;}
</style>
<defs>
</defs>
<g>
	<g>
		<g>
			<path class="st0" d="M53.13,6.78H37.2V3.03C37.2,1.36,35.85,0,34.17,0H22.01c-1.67,0-3.05,1.36-3.05,3.03v3.74H3.03
				C1.36,6.78,0,8.14,0,9.81v32.86c0,1.67,1.36,3.03,3.03,3.03h50.09c1.68,0,3.03-1.36,3.03-3.03V9.81
				C56.16,8.14,54.81,6.78,53.13,6.78z M21.4,3.03c0-0.33,0.28-0.6,0.61-0.6h12.16c0.33,0,0.6,0.27,0.6,0.6v3.74H21.4V3.03z
				 M53.73,42.67c0,0.33-0.27,0.6-0.6,0.6H3.03c-0.32,0-0.6-0.27-0.6-0.6V21.43h20.81v2.45c0,1.28,1.04,2.32,2.32,2.32h5.04
				c1.28,0,2.32-1.04,2.32-2.32v-2.45h20.8V42.67z M25.08,23.88v-2.45h6.02v2.45c0,0.27-0.22,0.49-0.49,0.49h-5.04
				C25.3,24.37,25.08,24.15,25.08,23.88z M53.73,18.96H2.44V9.81c0-0.33,0.28-0.6,0.6-0.6h50.09c0.33,0,0.6,0.27,0.6,0.6V18.96z"/>
		</g>
	</g>
	<g>
		<path class="st0" d="M28.78,22.85c0,0.36-0.29,0.65-0.65,0.65c-0.36,0-0.65-0.29-0.65-0.65c0-0.36,0.29-0.65,0.65-0.65
			C28.48,22.2,28.78,22.5,28.78,22.85z"/>
	</g>
</g>
</svg>

<svg width="57" height="46" viewBox="0 0 57 46" fill="none" xmlns="http://www.w3.org/2000/svg">
<path d="M53.13 6.78H37.2V3.03C37.2 1.36 35.85 0 34.17 0H22.01C20.34 0 18.96 1.36 18.96 3.03V6.77H3.03C1.36 6.78 0 8.14 0 9.81V42.67C0 44.34 1.36 45.7 3.03 45.7H53.12C54.8 45.7 56.15 44.34 56.15 42.67V9.81C56.16 8.14 54.81 6.78 53.13 6.78ZM21.4 3.03C21.4 2.7 21.68 2.43 22.01 2.43H34.17C34.5 2.43 34.77 2.7 34.77 3.03V6.77H21.4V3.03ZM53.73 42.67C53.73 43 53.46 43.27 53.13 43.27H3.03C2.71 43.27 2.43 43 2.43 42.67V21.43H23.24V23.88C23.24 25.16 24.28 26.2 25.56 26.2H30.6C31.88 26.2 32.92 25.16 32.92 23.88V21.43H53.72V42.67H53.73ZM25.08 23.88V21.43H31.1V23.88C31.1 24.15 30.88 24.37 30.61 24.37H25.57C25.3 24.37 25.08 24.15 25.08 23.88ZM53.73 18.96H2.44V9.81C2.44 9.48 2.72 9.21 3.04 9.21H53.13C53.46 9.21 53.73 9.48 53.73 9.81V18.96V18.96Z" fill="white"/>
<path d="M28.78 22.8502C28.78 23.2102 28.49 23.5002 28.13 23.5002C27.77 23.5002 27.48 23.2102 27.48 22.8502C27.48 22.4902 27.77 22.2002 28.13 22.2002C28.48 22.2002 28.78 22.5002 28.78 22.8502Z" fill="white"/>
</svg>
